public/icons/search.svg

<svg height="16" viewBox="0 0 15 16" width="15" xmlns="http://www.w3.org/2000/svg"><path d="m33.845058 26.9965359-3.5561798-3.5846575c2.4917464-2.5409836 2.5676737-6.6198749.1722661-9.2543028-2.3954077-2.6344279-6.4127906-2.8902812-9.1147508-.5804871-2.7019602 2.309794-3.130441 6.3662324-.9721493 9.2033609 2.1582916 2.8371285 6.1380724 3.4489628 9.0294378 1.3881467l3.625456 3.6743714c.2274645.2148133.5819278.2084749.8017737-.0143372.2198458-.2228121.2260999-.5820579.0141463-.8125914zm-13.589687-8.2653855c0-3.0159438 2.4123575-5.4608493 5.3881512-5.4608493s5.3881512 2.4449055 5.3881512 5.4608493-2.4123575 5.4608493-5.3881512 5.4608493-5.3881512-2.4449055-5.3881512-5.4608493z" fill="#286af0" fill-rule="evenodd" transform="translate(-19 -12)"/></svg>

<?xml version="1.0" encoding="UTF-8"?>
<svg width="15px" height="16px" viewBox="0 0 15 16" version="1.1" xmlns="http://www.w3.org/2000/svg" xmlns:xlink="http://www.w3.org/1999/xlink">
    <title>Shape</title>
    <g id="Page-1" stroke="none" stroke-width="1" fill="none" fill-rule="evenodd">
        <g id="MARKET-BASE-1-v0_1-(Not-login)-(Tablet)" transform="translate(-51.000000, -137.000000)" fill="#286AF0">
            <g id="Group-12" transform="translate(32.000000, 125.000000)">
                <path d="M33.845058,26.9965359 L30.2888782,23.4118784 C32.7806246,20.8708948 32.8565519,16.7920035 30.4611443,14.1575756 C28.0657366,11.5231477 24.0483537,11.2672944 21.3463935,13.5770885 C18.6444333,15.8868825 18.2159525,19.9433209 20.3742442,22.7804494 C22.5325358,25.6175779 26.5123166,26.2294122 29.403682,24.1685961 L33.029138,27.8429675 C33.2566025,28.0577808 33.6110658,28.0514424 33.8309117,27.8286303 C34.0507575,27.6058182 34.0570116,27.2465724 33.845058,27.0160389 L33.845058,26.9965359 Z M20.255371,18.7311504 C20.255371,15.7152066 22.6677285,13.2703011 25.6435222,13.2703011 C28.6193159,13.2703011 31.0316734,15.7152066 31.0316734,18.7311504 C31.0316734,21.7470942 28.6193159,24.1919997 25.6435222,24.1919997 C22.6677285,24.1919997 20.255371,21.7470942 20.255371,18.7311504 Z" id="Shape"></path>
            </g>
        </g>
    </g>
</svg>
